Esim/img/bg-left.svg

<svg width="333" height="240" viewBox="0 0 333 240" fill="none" xmlns="http://www.w3.org/2000/svg">
<path d="M42 69C42 67.3431 40.6569 66 39 66H30C28.3431 66 27 67.3431 27 69V240H42V69Z" fill="#C4C4C4" fill-opacity="0.1"/>
<path d="M82 40C82 38.3431 80.6569 37 79 37H70C68.3431 37 67 38.3431 67 40V240H82V40Z" fill="#C4C4C4" fill-opacity="0.1"/>
<path d="M107 98C107 96.3431 105.657 95 104 95H95C93.3431 95 92 96.3431 92 98V240H107V98Z" fill="#C4C4C4" fill-opacity="0.03"/>
<path d="M132 69C132 67.3431 130.657 66 129 66H120C118.343 66 117 67.3431 117 69V240H132V69Z" fill="#C4C4C4" fill-opacity="0.07"/>
<path d="M156 57C156 55.3431 154.657 54 153 54H144C142.343 54 141 55.3431 141 57V240H156V57Z" fill="#C4C4C4" fill-opacity="0.05"/>
<path d="M181 108C181 106.343 179.657 105 178 105H169C167.343 105 166 106.343 166 108V240H181V108Z" fill="#C4C4C4" fill-opacity="0.03"/>
<path d="M206 45C206 43.3431 204.657 42 203 42H194C192.343 42 191 43.3431 191 45V240H206V45Z" fill="#C4C4C4" fill-opacity="0.08"/>
<path d="M231 83C231 81.3431 229.657 80 228 80H219C217.343 80 216 81.3431 216 83V240H231V83Z" fill="#C4C4C4" fill-opacity="0.05"/>
<path d="M256 151C256 149.343 254.657 148 253 148H244C242.343 148 241 149.343 241 151V240H256V151Z" fill="#C4C4C4" fill-opacity="0.1"/>
<path d="M282 108C282 106.343 280.657 105 279 105H270C268.343 105 267 106.343 267 108V240H282V108Z" fill="#C4C4C4" fill-opacity="0.03"/>
<path d="M307 130C307 128.343 305.657 127 304 127H295C293.343 127 292 128.343 292 130V240H307V130Z" fill="#C4C4C4" fill-opacity="0.05"/>
<path d="M333 88C333 86.3431 331.657 85 330 85H321C319.343 85 318 86.3431 318 88V240H333V88Z" fill="#C4C4C4" fill-opacity="0.08"/>
<path d="M57 3C57 1.34314 55.6569 0 54 0H45C43.3431 0 42 1.34315 42 3V240H57V3Z" fill="#C4C4C4" fill-opacity="0.05"/>
<path d="M15 5C15 3.34314 13.6569 2 12 2H3C1.34315 2 0 3.34315 0 5V242H15V5Z" fill="#C4C4C4" fill-opacity="0.05"/>
</svg>

<svg width="333" height="240" fill="none" xmlns="http://www.w3.org/2000/svg"><path d="M42 69a3 3 0 00-3-3h-9a3 3 0 00-3 3v171h15V69zM82 40a3 3 0 00-3-3h-9a3 3 0 00-3 3v200h15V40z" fill="#C4C4C4" fill-opacity=".1"/><path d="M107 98a3 3 0 00-3-3h-9a3 3 0 00-3 3v142h15V98z" fill="#C4C4C4" fill-opacity=".03"/><path d="M132 69a3 3 0 00-3-3h-9a3 3 0 00-3 3v171h15V69z" fill="#C4C4C4" fill-opacity=".07"/><path d="M156 57a3 3 0 00-3-3h-9a3 3 0 00-3 3v183h15V57z" fill="#C4C4C4" fill-opacity=".05"/><path d="M181 108a3 3 0 00-3-3h-9a3 3 0 00-3 3v132h15V108z" fill="#C4C4C4" fill-opacity=".03"/><path d="M206 45a3 3 0 00-3-3h-9a3 3 0 00-3 3v195h15V45z" fill="#C4C4C4" fill-opacity=".08"/><path d="M231 83a3 3 0 00-3-3h-9a3 3 0 00-3 3v157h15V83z" fill="#C4C4C4" fill-opacity=".05"/><path d="M256 151a3 3 0 00-3-3h-9a3 3 0 00-3 3v89h15v-89z" fill="#C4C4C4" fill-opacity=".1"/><path d="M282 108a3 3 0 00-3-3h-9a3 3 0 00-3 3v132h15V108z" fill="#C4C4C4" fill-opacity=".03"/><path d="M307 130a3 3 0 00-3-3h-9a3 3 0 00-3 3v110h15V130z" fill="#C4C4C4" fill-opacity=".05"/><path d="M333 88a3 3 0 00-3-3h-9a3 3 0 00-3 3v152h15V88z" fill="#C4C4C4" fill-opacity=".08"/><path d="M57 3a3 3 0 00-3-3h-9a3 3 0 00-3 3v237h15V3zM15 5a3 3 0 00-3-3H3a3 3 0 00-3 3v237h15V5z" fill="#C4C4C4" fill-opacity=".05"/></svg>
